X: 305614
T: DEVANS' HORNPIPE
C:
%R: hornpipe, reel
B: Elias Howe "The Musician's Companion" Part 3 1844 p.75 #3
S: http://imslp.org/wiki/The_Musician's_Companion_(Howe,_Elias)
Z: 2015 John Chambers <jc:trillian.mit.edu>
M: 2/4
L: 1/16
K: D
% - - - - - - - - - - - - - - - - - - - - - - - - -
AF |\
DFAd FAdf | Adfa fafd | fefd fefd | c2e2e2 AF |\
DFAd FAdf | Adfa fafd | gfgb agfe | d2d2d2 :|
|: cd |\
e2ed cdef | g2e2e2 de | f2fe defg | a2f2f2 AF |\
DFAd FAdf | Adfa fafd | gfgb agfe | d2d2d2 :|
% - - - - - - - - - - - - - - - - - - - - - - - - -


